X:1
T:Light Of The Seven
T:The Spoils of War (Advanced Piano Solo)
T: Game Of Thrones OST Season 7 Episode 4
T: Composed by Ramin Djawadi Piano arrangement by Nicolas Del Gallo Full playthrough and more at https://www.youtube.com/c/NDGmusic If you want to donate, please check out my Patreon ☺ https://www.patreon.com/ndg 
C:Ramin Djawadi
%%score { ( 1 4 ) | ( 2 3 ) }
L:1/8
Q:3/8=62
M:6/8
K:Eb
V:1 treble nm="Piano" snm="Pno."
V:4 treble 
V:2 bass 
V:3 bass 
V:1
"^\n""^Pt. 1" z6 |!mp! !///-!C3 c3 | !///-!C3 ^c3 | !///-!C3 c3 | !///-!C3 [Bc]3 | %5
 !///-!C3 [=Bc]3 |!mf! !///-!C3 c3 | !///-!C3 [=Bc]3 | !///-!C3 [^A=Bc]3 | !///-!C3 [^G^A=Bc]3 | %10
!<(! C/c/c/C/c/c/ C/c/c/C/c/c/ | C/c/c/C/c/c/ C/c/c/C/c/c/ | %12
 C/c/c/C/!<)!!8vb(! (6:4:4z3/2 C,/E,/G,/!8vb)! (6:4:4z3/2 E/G/=B/ |!ff! !>![EG=Be]3 !>![EGBe]3 | %14
 !>![Gceg]3 !>![DG=Bd]3 | !>![EGce]6 | z6 | [=B,EG=B]6 |!fff! [CEGc]6 | z6 |!ffff! z6 || x6 | %22
 z3/2 [CGc]3/2 [CG=Bc][CGBc][CG_Bc] | z3/2 [CGB]3/2 [CAB][CAB][CGB] | z3/2 [Gc]3/2 =BB_B | %25
 z3/2 [CB]3/2 AAG | [C,C]3/2[cgc']3/2 [cg=bc'][cgbc'][cg_bc'] | [C,C]3/2[cgb]3/2 [cga][cga][=Beg] | %28
 [C,C]3/2[cgc']3/2 [cg=bc'][cgbc'][cg_bc'] | [Cc][Bb][Afa] [Fcdf][Acda][G=Beg] | %30
!8vb(! C,>[E,G,CE][E,G,CE]/[E,G,CE]/ [D,G,=B,D][D,G,B,D][_D,G,_B,_D] | %31
 C,>[E,G,CE][E,G,CE]/[E,G,CE]/ [D,G,=B,D][D,G,B,D][_D,G,_B,_D]!8vb)! | %32
"^Sostenuto is used to hold the Cs to be able to lighten the normal sustain" C/D/E/[Cc]/[Dd]/[Ee]/ [=Be=b][Beb][_Be_b] | %33
!8vb(! C,/D,/E,/!8vb)![Bb]/[Bb]/[Bb]/ [A=Ba][ABa][GBeg] | %34
!8vb(! C,/D,/E,/!8vb)![cec']/[cec']/[cec']/ [=Be=b][Beb][_Be_b] | %35
!8vb(! [C,E,]/D,/E,/!8vb)![Bb]/[Bb]/[Bb]/ [F=Bf][ABa][GBeg] | %36
 C/D/E/[CEGc]/[CEGc]/[CEGc]/ [=B,DG=B][B,DGB][_B,_DG_B] | %37
 C/D/E/[B,B]/[B,B]/[B,B]/ [A,=B,DA][A,B,DA][G,B,DG] | %38
 [CE]/D/E/[CEGc]/[CEGc]/[CEGc]/ [=B,DG=B][B,DGB][_B,_DG_B] | %39
 C/D/E/[B,B]/[B,B]/[B,B]/ [F,=B,DF][A,B,DA][G,B,DG] | %40
 [C,C]>!8va(![egc'e'][egc'e']/[egc'e']/ [dg=bd'][dgbd'][_d=e_b_d'] | %41
 [cfac'][Acfa][dfad'] [egc'e'][g=bd'g'][bd'g'=b'] | %42
 [c'e'g'c'']!8va)! z2 z3/2[K:bass] [B,,E,]/[=A,,D,]/[_A,,_D,]/ | %43
[M:9/8]!mf! !///-!C,3 C3 !///-!C,3/2 [=B,C]3/2 | !///-!C,3 [B,C]3 !///-!C,3/2 [B,C]3/2 | %45
 !///-!C,3 [A,B,C]3 !///-!C,3/2 [A,B,C]3/2 | %46
 [C,C]/[C,C]/[C,C]<[C,C] [C,C]/[C,C]/[C,C]<[C,C]{/E,F,G,} !>![C,C] !>![C,C]2 | %47
[M:6/8] [C,C]/[C,C]/[C,C]<[C,C] [C,C]/[^C,^C]/[D,D]/[E,E]/[=E,=E]/[F,F]/ || %48
[K:Ab] [A,CA]/[F,CF]F,/F,/F,/ F,/F,/F,/F,/F,/F,/ | F,/F,/F,/F,/F,/F,/ F, z/ [F,CF]/[E,B,E] | %50
 [A,CA]/[F,CF]F,/F,/F,/ F,/F,/F,/F,/F,/F,/ | F,/F,/F,/F,/F,/F,/ F,/F,/4F,/4F,/F,/F,/F,/ | %52
 [A,CA]/[F,CF]F,/F,/F,/ F,/F,/F,/F,/F,/F,/ | F,/F,/F,/F,/F,/F,/ F, z/ [F,CF]/[E,B,E] | %54
 [A,CA]/[F,CF] z3/2 [F,A,CF]3/2[G,CFG]3/2 | [A,CFA]3/2[G,CFG]3/2 [A,CFA]2 [B,B] | %56
[K:treble]!mf! [aa']/[aa']/[aa']/[ag'a']/[ag'a']/[ag'a']/ [af'a'][af'a'][a=e'a'] | %57
!f! [^CG^c]/[CGc]/[CGc]/[=CG=c]/[CGc]/[CGc]/ [=B,G=B][B,GB][_B,G_B] | %58
!<(! A,/A,/A,/G,/4A,/4B,/4C/4D/4E/4!<)!!ff! [FAcf]3 || [Acfa]6- | [Acfa]3 [G=Beg]3 | [Acfa]6- | %62
 [Acfa]3 [FAcf]3 | [Acfa]6- | [Acfa]3 [=EAc=e]3 | [FAcf]6- |!>(! [FAcf]6!>)! |!mf! z6 | %68
 F/G/A/F/G/A/ =EEE | F/G/A/F/G/A/ =EEE | F/G/A/F/G/A/ =EEE | F/G/A/F/G/A/ =EEE | %72
 [F,F]/[G,G]/[A,A]/[F,F]/[G,G]/[A,A]/ [=E,=E][E,E][E,E] | %73
 [F,F]/[G,G]/[A,A]/[F,F]/[G,G]/[A,A]/ [=E,=E][E,E][E,E] | %74
[M:3/8] [F,F]/[G,G]/[A,A]/[F,F]/[G,G]/[=B,=B]/ | %75
[K:Eb][M:6/8]!ff! [Cc]/[Dd]/[Ee]/[Cc]/[Dd]/[Ee]/ [=B,=B]/[Cc]/[^C^c]/[B,B]/[=C=c]/[^C^c]/ | %76
 [cc']/[dd']/[ee']/[cc']/[dd']/[ee']/ [=B=b]/[cc']/[^c^c']/[Bb]/[=c=c']/[^c^c']/ | %77
 [cc']/[dd']/[ee']/[cc']/[dd']/[ee']/ [=B=b]/[cc']/[^c^c']/[Bb]/[=c=c']/[^c^c']/ | %78
 [cc']/[dd']/[ee']/[cc']/[dd']/[ee']/ [=B=b]/[cc']/[^c^c']/[Bb]/[=c=c']/[^c^c']/ | %79
 [cc']/[dd']/[ee']/[cc']/[dd']/[ee']/ [=B=b]/[cc']/[^c^c']/[Bb]/[=c=c']/[^c^c']/ | %80
 [cc']/[dd']/[ee']/[cc']/[dd']/[ee']/ [=B=b]/[cc']/[^c^c']/[Bb]/[=c=c']/[^c^c']/ | [cc']6 | %82
[M:9/8] [cc']6- [cc']3 ||[K:Bb] z3/2 [E,G,CE]3/2 [D,^F,A,D]3 [_D,G,_D][D,G,D][C,G,C] | %84
 z3/2 [E,G,CE]3/2 [D,D]3 [_D,G,_D][D,G,D][C,G,C] | z3/2 [EGce]3/2 [DGBd]3 [CE_Ac][CEAc][B,EB] | %86
[M:6/8] z3/2 [F_Acf]3/2 [EGce]3 | [DF_Ad][DFAd][CFAc] [EAe][FAf][Gceg] | z6 | [_D,_D]3 A,B,=D || %90
[K:Ab] [Gcfg][Acfa][FAcf]- [FAcf]3- | [FAcf]6 | [Acfa][Gcfg][CFAc]- [CFAc]3- | [CFAc]6 | %94
 [Gcfg][Acfa][FAcf]- [FAcf]3- | [FAcf]6 | %96
 [Acfa][Gcfg][F,A,CF]/[F,A,CF]/ [F,A,CF]/[F,A,CF]/[F,A,CF]/[G,CFG]/[G,CFG]/[G,CFG]/ | %97
 [A,CFA]/[A,CFA]/[A,CFA]/[A,CFA]/[A,CFA]/[A,CFA]/ [A,DFA]/[A,DFA]/[A,DFA]/[A,DFA]/[A,DFA]/[A,DFA]/ | %98
 [Acfa][Gcfg][B,EGB] [_CEG_c]3 || %99
[K:Eb][M:4/4][Q:1/4=92]"^Pt. 2" z4 z2!8vb(! z/ [B,,E,]/[=A,,D,]/[_A,,_D,]/ | %100
 [G,,E,]/[G,,C,]/ z G,, z G,, z !arpeggio![G,,C,]/[G,,E,]/[G,,E,]/[G,,E,]/ | %101
 [G,,E,]/[G,,C,]/ z G,, z G,, z [G,,C,]/[G,,E,]/[G,,E,]/[G,,E,]/ | %102
 C,/G,/C/E/ E/G,/C,/C,/ C,/G,/C/E/ E/G,/C,/C,/ | C,/G,/C/E/ E/G,/C,/C,/ C,/G,/C/E/ E/G,/C,/C,/ | %104
 C,/G,/C/E/ E/G,/C,/C,/ C,/G,/C/E/ E/G,/C,/C,/ | C,/G,/C/E/ E/G,/C,/C,/ C,/G,/C/E/ E/G,/C,/C,/ | %106
 C,/G,/C/E/ E/G,/C,/C,/ C,/G,/C/E/ E/G,/C,/C,/!8vb)! | %107
 C/G/c/[Ge]/ [Ge]/[CG]/[G,C]/[G,C]/ [G,C]/G/c/e/ e/G/C/C/ | %108
 C/G/c/[Ge]/ [Ge]/[CG]/[G,C]/[G,C]/ [G,C]/[CG]/[Gc]/[Ge]/ [Ge]/G/C/C/ | %109
 C/G/[A,c]/[Ce]/ [Ce]/G/C/C/ C/G/[E,c]/[G,e]/ [G,e]/G/C/C/ | C/G/c/e/ e/G/C/C/ C/G/c/e/ e/G/C/C/ | %111
 C/G/c/e/ e/G/C/C/ C/G/c/e/ e/G/C/C/ | C8 ||[K:Bb] [db]8 | [c=a]8 | [db]4 [ec']4 | =a8 | %117
 [=ac']4 [dgb]4 | =a8 ||[K:Eb][K:treble-8] C7 C/[F,F]/ | E7 E/[B,B]/ | A7 A/[Cc]/ | %122
 !///-!=B,2 =B2 !///-!B,2 [_B=B]2 |[K:treble] [C,E,G,C]7 [CEGc]/[FAcf]/ | [EGce]7 [EGce]/[Acea]/ | %125
 [Gceg]8 | !///-!A2 [cea]2 !///-!G2 [ceg]2 | !///-!F2 [cef]2 z2 z/ F,/E,/D,/ || %128
"^Right hand can be used to help left part" [C,C]8 | [CEGc]6 [Acea]2 | [Gceg]8 | [FAcf]6 [CFAc]2 | %132
 [EGce]4 [D^F=Ad]4 | z8 | z8 | z8 ||[K:Ab] [FAcf]8 | [Ff]/[Bb]/[Aa]- [Aa]6 | [F,F]8- | [F,F]8 | %140
 [FAcf]8 | [Ff]/[Bb]/[Aa]- [Aa]6 | [=Ac=e=a]8- | [Acea]8 ||[K:Eb] [cegc']8 | [cc']/[ff']/ [ee']7 | %146
 [cegc']8 | [cc']/[ee']/[ee']- [ee']2 [=eac'=e']4- | [eac'e']8 | [E,A,E]6 [E_GBe][ABea] | %150
 [_GBe_g]6 [egbe'][abe'a'] | [_gbe'_g']6 [E=Ae][^FA^f] | [FBf]6 [E=Ace][^FAc^f] | %153
 [F=Acf]6 [^CFA^c][FAcf] | [=EAc=e]7 [^c^c']/[ff']/ | [=e=e']6 [^C=E=A^c][EAce] | %156
 [_EAc_e]6 [^c=e=a^c'][eac'=e'] | [eg=be']8 | z8 | E8 |!8vb(! _D,8!8vb)! | c'/e'/ d'7 || %162
 (3C/C/C/C (3C/C/C/C (3C/C/C/C (3C/C/C/C | (3C/C/C/C (3C/C/C/C (3C/C/C/C (3C/C/C/C | %164
 (3C/C/C/C (3C/C/C/C (3C/C/C/C (3C/C/C/C | (3C/C/C/C (3C/C/C/C (3C/C/C/C (3C/C/C/C | %166
"_cresc." (3C/C/C/C (3[Cc]/[Cc]/[Cc]/[Cc] (3C/C/C/C (3C/D/E/(3=B,/C/^C/ | %167
 (3C/C/C/C (3[CGc]/[CGc]/[CGc]/[CGc] (3[CAc]/[CAc]/[CAc]/[CAc] (3C/D/E/(3=B,/C/^C/ | %168
 (3[CAc]/[CAc]/[CAc]/[CAc] (3[CAc]/[CAc]/[CAc]/[CAc] (3[CGc]/[CGc]/[CGc]/[CGc] (3C/D/E/(3=B,/C/^C/ | %169
 (3[CGc]/[CGc]/[CGc]/[CGc] (3[CGc]/[CGc]/[CGc]/[CGc] (3[CAc]/[CAc]/[CAc]/[CAc] (3c/d/e/(3=B/c/^c/ | %170
 (3[cac']/[cac']/[cac']/[cac'] (3[cac']/[cac']/[cac']/[cac'] (3[cgc']/[cgc']/[cgc']/[cgc'] (3c/d/e/(3=B/c/^c/ | %171
 (3[cgc']/[cgc']/[cgc']/[cgc'] (3[cgc']/[cgc']/[cgc']/[cgc'] (3[cac']/[cac']/[cac']/[cac'] (3c/d/e/(3=B/c/^c/ | %172
 (3[cac']/[cac']/[cac']/[cac'] (3[cac']/[cac']/[cac']/[cac'] (3[cgc']/[cgc']/[cgc']/[cgc'] (3c/d/e/(3=B/c/^c/ | %173
 (3[cgc']/[cgc']/[cgc']/[cgc'] (3[cgc']/[cgc']/[cgc']/[cgc'] (3[cac']/[cac']/[cac']/[cac'] z2 |] %174
V:2
 C,,,6 | !///-!C,,3 C,3 | x6 | x6 | x6 | x6 | !>![C,,,C,,]3 [C,,C,][C,,C,][C,,C,] | x6 | x6 | x6 | %10
 [C,,,C,,]6- | [C,,,C,,]6 | z2 (6:4:4C,,/E,,/G,,/ z3/2 (6:4:4C,/E,/G,/ z3/2 | %13
 [=B,,,,=B,,,]B,,,,/B,,,/B,,,,/B,,,/ [B,,,=B,,][B,,,,B,,,][B,,,,B,,,] | %14
 [C,,,C,,]C,,,/C,,/C,,,/C,,/ [C,,C,][C,,,C,,][C,,,C,,] | %15
 [G,,,G,,]G,,,/G,,/G,,,/G,,/ [G,,G,][G,,,G,,][G,,,G,,] | %16
 [A,,,A,,]A,,,/A,,/A,,,/A,,/ [A,,A,][A,,,A,,][A,,,A,,] | %17
 [A,,,A,,]A,,,/A,,/A,,,/A,,/ [A,,A,][A,,,A,,][A,,,A,,] | %18
 [C,,,C,,]C,,/C,/C,,/C,/ [C,C][C,,C,][C,,C,] | [C,,,C,,]C,,/C,/C,,/C,/ [C,C][C,,C,][C,,C,] | %20
 !>![C,,,C,,]2 z4 || %21
 z3[I:staff -1] [Gg]/4[I:staff +1][G,,G,]/4[I:staff -1][^F^f]/4[I:staff +1][^F,,^F,]/4[I:staff -1][=F=f]/4[I:staff +1][=F,,=F,]/4[I:staff -1][=E=e]/4[I:staff +1][=E,,=E,]/4[I:staff -1][_E_e]/4[I:staff +1][_E,,_E,]/4[I:staff -1][Dd]/4[I:staff +1][D,,D,]/4 | %22
!ped! [C,,,C,,C,]3/2!ped-up!!ped!C,3/2 [=B,,=B,][B,,B,][_B,,_B,]!ped-up! | %23
"_sim." [C,,,C,,C,]3/2[B,,B,]3/2 [A,,A,][A,,A,][G,,G,] | %24
 [C,,,C,,C,]3/2C,3/2 [=B,,=B,][B,,B,][_B,,_B,] | [C,,,C,,C,]3/2[A,,A,]3/2 [B,,B,][B,,B,][=B,,=B,] | %26
 [C,,,C,,]3/2C3/2 [=B,=B][B,B][_B,_B] | [C,,,C,,]3/2[B,B]3/2 [A,FA][A,FA][G,FG] | %28
 [C,,,C,,]3/2C3/2 [=B,=B][B,B][_B,_B] | [C,,,C,,][B,,B,][A,,A,] [G,,D,F,][A,,D,A,][G,,D,F,G,] | %30
 [C,,,C,,]/G,,,/C,,/C,,/G,,/C,/ C,/C,,/=B,,/C,,/_B,,/C,,/ | %31
 [C,,,C,,]/G,,,/C,,/C,,/G,,/C,/ C,/C,,/=B,,/C,,/_B,,/C,,/ | %32
"_Sost."!ped! z3/2 C,/D,/E,/ =B,,/C,/^C,/B,,/=C,/^C,/ | z3/2 C,/D,/E,/ =B,,/C,/^C,/B,,/=C,/^C,/ | %34
 [C,,,C,,]3 z/ C,/^C,/=B,,/=C,/^C,/ | z3/2 C,/D,/E,/ =B,,/C,/^C,/B,,/=C,/^C,/ | %36
 [C,,,C,,]>[C,,C,][D,,D,]/[E,,E,]/ [=B,,,=B,,]/[C,,C,]/[^C,,^C,]/[B,,,B,,]/[=C,,=C,]/[^C,,^C,]/ | %37
 [C,,,C,,]>[C,,C,][D,,D,]/[E,,E,]/ [=B,,,=B,,]/[C,,C,]/[^C,,^C,]/[B,,,B,,]/[=C,,=C,]/[^C,,^C,]/ | %38
 [E,,,E,,]/[C,,,C,,]/ z/ [C,,C,]/[D,,D,]/[E,,E,]/ [=B,,,=B,,]/[C,,C,]/[^C,,^C,]/[B,,,B,,]/[=C,,=C,]/[^C,,^C,]/ | %39
 [C,,,C,,]>[C,,C,][D,,D,]/[E,,E,]/ [=B,,,=B,,]/[C,,C,]/[^C,,^C,]/[B,,,B,,]/[=C,,=C,]/[^C,,^C,]/ | %40
 [C,,,C,,]>!ped-up![K:treble][Cc][Cc]/[Cc]/ [=B,=B][B,B][_B,_B] | %41
 [A,FA][F,F][A,A] [G,G][F,F][D,D] | [C,C] z2 z3/2[K:bass] [E,,,E,,]/[D,,,D,,]/[_D,,,_D,,]/ | %43
[M:9/8]!ff! [C,,,C,,]/[C,,,C,,]/[C,,,C,,]<[C,,,C,,] [C,,,C,,]/[C,,,C,,]/[C,,,C,,]<[C,,,C,,] !>![=B,,=B,] !>![B,,B,]2 | %44
 [C,,,C,,]/[C,,,C,,]/[C,,,C,,]<[C,,,C,,] [C,,,C,,]/[C,,,C,,]/[C,,,C,,]<[C,,,C,,] !>![A,,A,] !>![A,,A,]2 | %45
 [C,,,C,,]/[C,,,C,,]/[C,,,C,,]<[C,,,C,,] [C,,,C,,]/[C,,,C,,]/[C,,,C,,]<[C,,,C,,] !>![G,,G,] !>![G,,G,]2 | %46
 [C,,,C,,]/[C,,,C,,]/[C,,,C,,]<[C,,,C,,] [C,,,C,,]/[C,,,C,,]/[C,,,C,,]<[C,,,C,,] !>![C,,,C,,] !>![C,,,C,,]2 | %47
[M:6/8] [C,,,C,,]/[C,,,C,,]/[C,,,C,,]<[C,,,C,,] [C,,,C,,]/[^C,,,^C,,]/[D,,,D,,]/[E,,,E,,]/[=E,,,=E,,]/[F,,,F,,]/ || %48
[K:Ab] [F,,,F,,]>[F,,,F,,][F,,,F,,]/[F,,,F,,]/ [F,,,F,,]>[F,,,F,,][F,,,F,,]/[F,,,F,,]/ | %49
 [=B,,,=B,,]>[B,,,B,,][B,,,B,,]/[B,,,B,,]/ [B,,,B,,]>[B,,,B,,][B,,,B,,]/[B,,,B,,]/ | %50
 [F,,,F,,]>[F,,,F,,][F,,,F,,]/[F,,,F,,]/ [F,,,F,,]>[F,,,F,,][F,,,F,,]/[F,,,F,,]/ | %51
 [=B,,,=B,,]>[B,,,B,,][B,,,B,,]/[B,,,B,,]/ [B,,,B,,]/[B,,,B,,]/[B,,,B,,]/[B,,,B,,]/[B,,,B,,]/[B,,,B,,]/ | %52
 [F,,,F,,]>[F,,,F,,][F,,,F,,]/[F,,,F,,]/ [F,,,F,,]>[F,,,F,,][F,,,F,,]/[F,,,F,,]/ | %53
 [=B,,,=B,,]>[B,,,B,,][B,,,B,,]/[B,,,B,,]/ [B,,,B,,]>[B,,,B,,][B,,,B,,]/[B,,,B,,]/ | %54
 [F,,,F,,]>[F,,,F,,][F,,,F,,]/[F,,,F,,]/ [F,,,F,,]>[F,,,F,,][F,,,F,,]/[F,,,F,,]/ | %55
 [F,,,F,,]>[F,,,F,,][F,,,F,,]/[F,,,F,,]/ [F,,,F,,]/[F,,,F,,]/[F,,,F,,]/[F,,,F,,]/[B,,,B,,] | %56
[K:treble] [A=B]/[AB]/[AB]/[GBg]/[GBg]/[GBg]/ [FBf][FBf][=EB=e] | %57
[K:bass] [C,G,]/[C,G,]/[C,G,]/[C,G,]/[C,G,]/[C,G,]/ [C,G,][C,G,][C,G,] | %58
 [A,,,A,,]/[A,,,A,,]/[A,,,A,,]/[G,,,G,,]/[G,,,G,,]/[G,,,G,,]/ [D,,D,][C,,C,][A,,,A,,] || %59
 [F,,,F,,]F,,/F,,/F,,/F,,/ [F,,,F,,][F,,,F,,]/[F,,,F,,]/[F,,,F,,]/[F,,,F,,]/ | %60
 [=E,,,=E,,]E,,/E,,/E,,/E,,/ [E,,,E,,][E,,,E,,]/[E,,,E,,]/[E,,,E,,]/[E,,,E,,]/ | %61
 [E,,,E,,]E,,/E,,/E,,/E,,/ [E,,,E,,][E,,,E,,]/[E,,,E,,]/[E,,,E,,]/[E,,,E,,]/ | %62
 [D,,,D,,]D,,/D,,/D,,/D,,/ [D,,,D,,][D,,,D,,]/[D,,,D,,]/[D,,,D,,]/[D,,,D,,]/ | %63
 [F,,,F,,]F,,/F,,/F,,/F,,/ [F,,,F,,][F,,,F,,]/[F,,,F,,]/[F,,,F,,]/[F,,,F,,]/ | %64
 [=E,,,=E,,]E,,/E,,/E,,/E,,/ [E,,,E,,][E,,,E,,]/[E,,,E,,]/[E,,,E,,]/[E,,,E,,]/ | %65
 [E,,,E,,]E,,/E,,/E,,/E,,/ [E,,,E,,][E,,,E,,]/[E,,,E,,]/[E,,,E,,]/[E,,,E,,]/ | %66
 [D,,,D,,]D,,/D,,/D,,/D,,/ [D,,,D,,][D,,,D,,]/[D,,,D,,]/[D,,,D,,]/[D,,,D,,]/ | %67
 [F,,,F,,]>[F,,,F,,][F,,,F,,]/[F,,,F,,]/ [F,,,F,,]>[F,,,F,,][F,,,F,,]/F,,/ | %68
 [C,A,]>[F,,,F,,][F,,,F,,]/[F,,,F,,]/ [F,,,F,,]>[F,,,F,,][F,,,F,,]/F,,/ | %69
 [C,G,]>[F,,,F,,][F,,,F,,]/[F,,,F,,]/ [F,,,F,,]>[F,,,F,,][F,,,F,,]/F,,/ | %70
 [C,A,]>[F,,,F,,][F,,,F,,]/[F,,,F,,]/ [D,B,]>[F,,,F,,][F,,,F,,]/[F,,,F,,]/ | %71
 [B,,G,]>[F,,,F,,][F,,,F,,]/[F,,,F,,]/ [F,,,F,,]>[F,,,F,,][F,,,F,,]/F,,/ | %72
"_cresc." [E,,E,]3 [A,,A,]3 | [=B,,=B,]3 [G,,G,]3 |[M:3/8] !///-!G,,,3/2 G,,3/2 | %75
[K:Eb][M:6/8]!ff! [C,G,E]>[C,,,C,,][C,,,C,,]/[C,,,C,,]/ [C,,,C,,]3/2[C,,,C,,]C,/ | %76
 [G,D]>[C,,,C,,][C,,,C,,]/[C,,,C,,]/ [C,,,C,,]3/2[C,,,C,,]C,/ | %77
 [G,E]3/2[C,,,C,,]3/2 [A,F]3/2[C,,,C,,]3/2 | %78
 [=A,^F]>[C,,,C,,][C,,,C,,]/[C,,,C,,]/ [C,,,C,,]3/2[C,,,C,,]=B,/ | %79
[K:treble] [A,A]>[K:bass][C,,,C,,][C,,,C,,]/[C,,,C,,]/ [C,,,C,,]3/2[C,,,C,,][K:treble]C/ | %80
 [=A,=A]>[K:bass][C,,,C,,][C,,,C,,]/[C,,,C,,]/ [C,,,C,,]3 | z6 | %82
[M:9/8] !arpeggio![=B,=B]6- [B,B]3 ||[K:Bb] [G,,,G,,]6 [E,,,E,,]3 | %84
 [G,,,G,,]3 [F,,,F,,]3 [E,,,E,,]3 | [G,,,G,,]3 [B,,,B,,]3 [_A,,,_A,,]3 | %86
[M:6/8] [C,,,C,,]3 [E,,,E,,]3 | [=E,,,=E,,]6 | [C,,,C,,]6- | [C,,,C,,]6 || %90
[K:Ab] [F,,,F,,]3"^r.h" [F,,,F,,]3 | [D,,D,]3 [=B,,,=B,,]3 | [F,,,F,,]3"^r.h." [F,,,F,,]3 | %93
 [=B,,,=B,,]3 [A,,,A,,]3 | [F,,,F,,]6 | [C,,C,]3 [=B,,,=B,,]3 | [F,,,F,,]3 [F,,,F,,]3 | %97
 [C,,C,]3 [D,,D,]3 | [E,,E,]3 [=E,,=E,]3 || %99
[K:Eb][M:4/4] z4 z2 z/ [E,,,E,,]/[D,,,D,,]/[_D,,,_D,,]/ | %100
 [C,,,C,,] z [C,,,C,,] z [C,,,C,,] z !arpeggio![C,,,G,,,C,,] z | %101
 [C,,,C,,] z [C,,,C,,] z [C,,,C,,] z [C,,,G,,,C,,] z | %102
 [C,,,C,,-]2 [C,,,C,,-]2 [C,,,C,,]2 [A,,,A,,]2 | [G,,,G,,-]2 [G,,,G,,-]2 [G,,,G,,-]2 [G,,,G,,]2 | %104
 [F,,,F,,-]2 [F,,,F,,-]2 [F,,,F,,]2 [C,,,C,,]2 | [E,,,E,,-]2 [E,,,E,,]2 [D,,,D,,]4- | %106
 [D,,,D,,]4 !///-!D,,,2 D,,2 | [C,,,C,,]6 [A,,,A,,]2 | [G,,,G,,]8 | [A,,,A,,]4 [E,,,E,,]4 | %110
!ped! [D,,,D,,]8- | [D,,,D,,]8- | [D,,,D,,]8[K:treble] ||[K:Bb] B7 D | =A7 D | B4 c4 | [=Ac]8 | %117
 c4 B4!ped-up! |!ped! =A8!ped-up! ||[K:Eb][K:bass] [C,,,C,,]7 [C,,,C,,]/F,,,/ | %120
 [E,,,E,,]7 [E,,,E,,]/[B,,,B,,]/ | [A,,,A,,]7 [A,,,A,,]/C,,/ | =B,,,8 | %123
 [C,,,C,,]7 [C,,,C,,]/[F,,,F,,]/ | [E,,,E,,]7 [E,,,E,,]/[A,,,A,,]/ | [G,,,G,,]8 | %126
 !///-!A,,,2 A,,2 !///-!A,,2 A,2 | !///-!A,,2 A,2 z2 z/ [F,,,F,,]/[E,,,E,,]/[D,,,D,,]/ || %128
 [C,,,C,,]/G,,/E,/E,/ E,/G,,/C,,/C,,/ C,,/G,,/E,/E,/ E,/G,,/C,,/C,,/ | %129
 [C,,,C,,]/G,,/E,/E,/ E,/G,,/C,,/C,,/ C,,/G,,/E,/E,/ E,/G,,/C,,/C,,/ | %130
 C,,/G,,/E,/E,/ E,/G,,/C,,/C,,/ C,,/G,,/E,/E,/ E,/G,,/C,,/C,,/ | %131
 [F,,,F,,]/C,/A,/A,/ A,/C,/F,,/F,,/ F,,/C,/A,/A,/ A,/C,/F,,/F,,/ | %132
 E,,/C,/G,/G,/ G,/C,/E,,/E,,/ D,,/=A,,/^F,/F,/ F,/A,,/D,,/D,,/ | %133
 D,,/=A,,/^F,/F,/ F,/A,,/D,,/D,,/ D,,/A,,/F,/F,/ F,/A,,/D,,/D,,/ | %134
 D,,/=A,,/^F,/F,/ F,/A,,/D,,/D,,/ D,,/A,,/F,/F,/ F,/A,,/D,,/D,,/ | %135
 D,,/=A,,/^F,/F,/ F,/A,,/D,,/D,,/ D,,/A,,/F,/F,/ F,/A,,/D,,/D,,/ || %136
[K:Ab] [F,,,F,,]/C,/A,/A,/ A,/C,/F,,/F,,/ F,,/C,/A,/A,/ A,/C,/F,,/F,,/ | %137
 ^F,,/C,/A,/A,/ A,/C,/F,,/F,,/ [^G,,,^G,,]/C,/A,/A,/ A,/C,/G,,/G,,/ | %138
 [F,,,F,,]/C,/A,/A,/ A,/C,/F,,/F,,/ F,,/C,/A,/A,/ A,/C,/F,,/F,,/ | %139
 [^F,,,^F,,]/C,/A,/A,/ A,/C,/F,,/F,,/ [^G,,,^G,,]/C,/A,/A,/ A,/C,/G,,/G,,/ | %140
 [F,,,F,,]/C,/A,/A,/ A,/C,/F,,/F,,/ F,,/C,/A,/A,/ A,/C,/F,,/F,,/ | %141
 ^F,,/C,/A,/A,/ A,/C,/F,,/F,,/ [^G,,,^G,,]/C,/A,/A,/ A,/C,/G,,/G,,/ | %142
 [=A,,,=A,,]/=E,/C/C/ C/E,/A,,/A,,/ A,,/E,/C/C/ C/E,/A,,/A,,/ | %143
 [=A,,,=A,,]/=E,/C/C/ C/E,/A,,/A,,/ A,,/E,/C/C/ C/E,/A,,/A,,/ || %144
[K:Eb] [C,,C,]/G,/E/E/ E/G,/C,/C,/ C,/G,/E/E/ E/G,/C,/C,/ | %145
 ^C,/G,/E/E/ E/G,/C,/C,/ [^D,,^D,]/G,/E/E/ E/G,/D,/D,/ | %146
 [C,,C,]/G,/E/E/ E/G,/C,/C,/ C,/G,/E/E/ E/G,/C,/C,/ | %147
 ^C,/G,/E/E/ E/G,/C,/C,/ [^D,,^D,]/G,/=E/E/ E/G,/D,/D,/ | [^D,,,^D,,^D,]8 | [B,,,,B,,,]8- | %150
 [B,,,,B,,,]8- | [B,,,,B,,,]2 [=A,,,=A,,=A,]6 | [B,,F,]2 [B,,,B,,]4 [B,,,B,,][B,,,B,,] | %153
 [=A,,,=A,,]6 [^C,,^C,][A,,,A,,] | [A,,,A,,]8 | [=A,,,=A,,]8 | [A,,,A,,]6 [^F,,,^F,,]2 | %157
 [G,,,G,,]8 | [C,,,C,,C,]8- | [C,,,C,,C,]8- | [C,,,C,,C,]8- | [C,,,C,,C,]8 || z6 A,2- | [A,=B,]8 | %164
 [G,=B,]8 | [A,=B,]7 !~(!C, | !~)![C,,,C,,]2 [C,,C,]2 [C,,,C,,]2 [C,,C,]!~(!C, | %167
 !~)![C,,,C,,]2 [C,,C,]2 [C,,,C,,]2 [C,,C,]!~(!C, | %168
 !~)![C,,,C,,]2 [C,,C,]2 [C,,,C,,]2 [C,,C,]!~(!C, | %169
 !~)![C,,,C,,][C,,C,][C,,,C,,][C,,C,] [C,,,C,,][C,,C,][C,,,C,,][G,,G,] | %170
 [C,,,C,,][C,,C,][C,,,C,,][C,,C,] [C,,,C,,][C,,C,][C,,,C,,]!~(![C,,C,] | %171
 !~)![C,,,C,,][C,,C,][C,,,C,,][C,,C,] [C,,,C,,][C,,C,][C,,,C,,]!~(![C,,C,] | %172
 !~)![C,,,C,,][C,,C,][C,,,C,,][C,,C,] [C,,,C,,][C,,C,][C,,,C,,]!~(![C,,C,] | %173
 !~)![C,,,C,,][C,,C,][C,,,C,,]!~(![G,,G,] (3!~)![C,,,C,,]/[C,,,C,,]/[C,,,C,,]/[C,,,C,,] z2 |] %174
V:3
 !///-!C,,3 C,3 | x6 | x6 | x6 | x6 | x6 | x6 | x6 | x6 | x6 | x6 | x6 | x6 | x6 | x6 | x6 | x6 | %17
 x6 | x6 | x6 | x6 || x6 | x6 | x6 | x6 | x6 | x6 | x6 | x6 | x6 | x6 | x6 | [C,,,C,,]6 | %33
 [C,,,C,,]6 | z3/2 C,/D,/E,/ [B,,,B,,]3 | [E,,,E,,]/[C,,,C,,]/- [C,,,C,,]2- [C,,,C,,]3 | x6 | x6 | %38
 z6 | z6 | x3/2[K:treble] x9/2 | x6 | x9/2[K:bass] x3/2 |[M:9/8] x9 | x9 | x9 | x9 |[M:6/8] x6 || %48
[K:Ab] x6 | x6 | x6 | x6 | x6 | x6 | x6 | x6 |[K:treble] x6 |[K:bass] x6 | x6 || x6 | x6 | x6 | %62
 x6 | x6 | x6 | x6 | x6 | x6 | x6 | x6 | x6 | x6 | x6 | x6 |[M:3/8] x3 |[K:Eb][M:6/8] x6 | x6 | %77
 x6 | x6 |[K:treble] x3/2[K:bass] x4[K:treble] x/ | x3/2[K:bass] x9/2 | x6 |[M:9/8] x9 || %83
[K:Bb] x9 | x9 | x9 |[M:6/8] x6 | x6 | x6 | x6 ||[K:Ab] z F,A,/B,/ CF,A,/B,/ | %91
 CF,A,/B,/ =B,F,A,/_B,/ | z"^l.h." F,A,/B,/ CF,A,/B,/ | =B,F,A,/_B,/ =B,F,A,/_B,/ | %94
 z F,A,/B,/ CF,A,/B,/ | CF,A,/B,/ =B,F,A,/_B,/ | x6 | x6 | x6 ||[K:Eb][M:4/4] x8 | x8 | x8 | x8 | %103
 x8 | x8 | x8 | x8 | x8 | x8 | x8 | x8 | x8 | x7[K:treble] D ||[K:Bb] x8 | x8 | x8 | x8 | x8 | %118
 x8 ||[K:Eb][K:bass] x8 | x8 | x8 | x8 | x8 | x8 | x8 | x8 | x8 || x8 | x8 | x8 | x8 | %132
 x7 D,,,/D,,,/ | D,,,7 D,,,/D,,,/ | D,,,7 D,,,/D,,,/ | [E,,,E,,]4 [F,,,F,,]4 ||[K:Ab] x8 | x8 | %138
 x8 | x8 | x8 | x8 | x7 =A,,,/A,,,/ | x8 ||[K:Eb] z8 | x8 | x8 | x8 | x8 | x6 [E,B,][A,B,] | %150
 [_G,B,]6 [E,B,][A,B,] | x6 [E,=A,]>E, | x8 | x8 | x8 | x8 | x8 | x8 | x8 | x8 | x8 | x8 || x8 | %163
 x8 | x8 | x8 | x8 | x8 | x8 | x8 | x8 | x8 | x8 | x8 |] %174
V:4
 x6 | x6 | x6 | x6 | x6 | x6 | x6 | x6 | x6 | x6 | x6 | x6 | x2!8vb(! x2!8vb)! x2 | %13
 z (3E,/G,/=B,/(3E/G/=B/ z (3G,/B,/E/(3G/B/e/ | z (3C/D/E/(3F/G/A/ z (3D/E/F/(3G/A/=B/ | %15
 z (3C/D/E/(3G/E/D/ (3C/D/E/(3G/E/D/(3C/D/E/ | (3A/E/D/(3C/D/E/(3A/E/D/ (3C/D/E/(3A/G/F/(3E/D/C/ | %17
 z (3=B/e/g/(3=b/e'/g'/ (3=b'/g'/e'/(3b/g/e/(3B/G/E/ | x6 | x6 | x6 || x6 | x6 | x6 | %24
 C/D/E/C/D/E/ C/D/E/C/D/E/ | C/D/E/ x/ D/E/ C/D/E/C/D/E/ | x6 | x6 | x6 | x6 |!8vb(! x6 | %31
 x6!8vb)! | x6 |!8vb(! x3/2!8vb)! x9/2 |!8vb(! x3/2!8vb)! x9/2 |!8vb(! x3/2!8vb)! x9/2 | x6 | x6 | %38
 x6 | x6 | x3/2!8va(! x9/2 | x6 | x!8va)! x7/2[K:bass] x3/2 |[M:9/8] x9 | x9 | x9 | x9 | %47
[M:6/8] x6 ||[K:Ab] x6 | x6 | x6 | x6 | x6 | x6 | x6 | x6 |[K:treble] x6 | x6 | x6 || %59
 z/ [F,F]/[F,F]/[=E,=E]/[E,E]/[E,E]/ [_E,_E][E,E]/[E,E]/[D,D]/[C,C]/ | %60
 [F,F]/[F,F]/[F,F]/[=E,=E]/[E,E]/[E,E]/ z _E/E/D/C/ | %61
 z/ [F,F]/[F,F]/[=E,=E]/[E,E]/[E,E]/ _EE/E/D/C/ | z/ [F,F]/[F,F]/[=E,=E]/[E,E]/[E,E]/ z _E/E/D/C/ | %63
 z/ [F,F]/[F,F]/[=E,=E]/[E,E]/[E,E]/ _EE/E/D/C/ | %64
 [F,F]/[F,F]/[F,F]/[=E,=E]/[E,E]/[E,E]/ x _E/E/D/C/ | %65
 z/ [F,F]/[F,F]/[=E,=E]/[E,E]/[E,E]/ [_E,_E][E,E]/[E,E]/[D,D]/[C,C]/ | %66
 [D,D]3/2[C,C]3/2 [B,,B,]3/2[A,,A,]3/2 | [F,,F,]6 | x6 | x6 | x6 | x6 | x6 | x6 |[M:3/8] x3 | %75
[K:Eb][M:6/8] x6 | x6 | x6 | x6 | x6 | x6 | x6 |[M:9/8] x9 ||[K:Bb] x9 | x9 | x9 |[M:6/8] x6 | x6 | %88
 x6 | x6 ||[K:Ab] x6 | x6 | x6 | x6 | x6 | x6 | x6 | x6 | x6 ||[K:Eb][M:4/4] x6!8vb(! x2 | x8 | %101
 x8 | x8 | x8 | x8 | x8 | x8!8vb)! | x8 | x8 | x8 | x8 | x8 | x8 ||[K:Bb] x8 | x8 | x8 | x8 | x8 | %118
 x8 ||[K:Eb][K:treble-8] x8 | x8 | x8 | x8 |[K:treble] x8 | x8 | x8 | x8 | x8 || x8 | x8 | x8 | %131
 x8 | x8 | x8 | x8 | x8 ||[K:Ab] x8 | x8 | x8 | x8 | x8 | x8 | x8 | x8 ||[K:Eb] x8 | x8 | x8 | x8 | %148
 x8 | x8 | x8 | x8 | x8 | x8 | x8 | x8 | x8 | x8 | x8 | x8 |!8vb(! x8!8vb)! | x8 || x8 | x8 | x8 | %165
 x8 | x8 | x8 | x8 | x8 | x8 | x8 | x8 | x8 |] %174

